X: 1
T: Clergy's Lamentation, The
M: 4/4
L: 1/8
R: reel
K: Emin
|:"Bm"B,A, B,D"Em"E2EF|"G"G2GAB2"Am"ed|"Em"ef ed"G"B2AG|
[1"D"FG AF"Em"EF "Bm"ED:|[2"D"FG AB"Bm"B,2E2|"Em"E8
|:"Em"e2ed"Bm"BA Bd|"Em"e2-ef"G"g2-ga|g2B2"Bm"fe fg|
f2e2"Em"e2-ef|e2"Bm"dB"G"g2fe|"Em"ef ed"G"B2"D"AB|
"G"G2GF"Em"E2-EF|"G"GF GAB2-Bd|"Em"ef ed"Bm"B2AG|
FG ABB,2E2|"Em"E8:|


